assets/flagsAndGeo/svg/blr.svg

<?xml version="1.0" encoding="utf-8"?>
<!DOCTYPE svg PUBLIC "-//W3C//DTD SVG 1.1//EN" "http://www.w3.org/Graphics/SVG/1.1/DTD/svg11.dtd">
<svg xmlns="http://www.w3.org/2000/svg" xmlns:xlink="http://www.w3.org/1999/xlink" width="900" height="450" viewBox="0 0 1098 549">
<title>Flag of Belarus</title>
<rect fill="#C8313E" width="1098" height="549"/>
<rect y="366" fill="#4AA657" width="1098" height="183"/>
<rect fill="#FFF" width="122" height="549"/>
<g id="h">
<g id="q" fill="#C8313E" fill-rule="evenodd" transform="scale(5.304347826,9)">
<path d="M4,0h3v1h1v1h1v1h1v1h1v1h-1v1h-1v1h-1v1h-1v1h-1v1h-1v-1h-1v-1h-1v-1h-1v-1h-1v-1h-1v-1h1v-1h1v-1h1v-1h1zM5,2h1v1h1v1h1v1h-1v1h-1v1h-1v-1h-1v-1h-1v-1h1v-1h1zM5,4h1v1h-1zM0,1h1v1h-1zM0,7h1v1h-1zM11,0h0.6v2h-.6zM11,7h.6v2h-.6zM2,9h1v1h1v1h1v1h-1v1h-1v1h-1v-1h-1v-1h-1v-1h1v-1h1zM2,11h1v1h-1zM8,9h1v1h1v1h1v1h-1v1h-1v1h-1v-1h-1v-1h-1v-1h1v-1h1zM8,11h1v1h-1zM0,15h1v1h-1zM11,14h.6v2h-.6z"/>
<path d="M0,18h1v-1h1v-1h1v-1h1v-1h1v-1h1v1h1v1h1v1h1v1h1v1h1v1h.6v4h-.6v1h-1v1h-1v1h-1v1h-1v1h-1v2.6h-2v-0.6h-1v-1h-1v-1h-1v-1h-1 v-3h1v1h1v1h1v1h1v-1h1v-1h1v-1h1v-1h1v-1h1v-1h-1v-1h-1v-1h-3v1h2v1h-1v1h-1v1h-1v-1h-1v-1h-1v-1h-1zM0,22h1v1h-1zM11,25h.6v1h-.6zM9,27h1v1h1v1h.6v1.6h-.6v-.6h-1v-1h-1zM7,30h1v.6h-1z"/>
</g>
<use xlink:href="#q" transform="translate(122,0) scale(-1,1)"/>
</g>
<use xlink:href="#h" transform="translate(0,549) scale(1,-1)"/>
</svg>

<?xml version="1.0" encoding="UTF-8"?>
<svg xmlns="http://www.w3.org/2000/svg" xmlns:xlink="http://www.w3.org/1999/xlink" width="900" height="450" viewBox="0 0 1098 549">
    <path fill="#C8313E" d="M0 0h1098v366H0z"/>
    <path fill="#4AA657" d="M0 366h1098v183H0z"/>
    <path fill="#FFF" d="M0 0h122v549H0z"/>
    <g id="blr_b">
        <g id="blr_a" fill="#C8313E" fill-rule="evenodd">
            <path d="M4 0h3v1h1v1h1v1h1v1h1v1h-1v1H9v1H8v1H7v1H6v1H5V9H4V8H3V7H2V6H1V5H0V4h1V3h1V2h1V1h1zm1 2h1v1h1v1h1v1H7v1H6v1H5V6H4V5H3V4h1V3h1zm0 2h1v1H5zM0 1h1v1H0zm0 6h1v1H0zm11-7h.6v2H11zm0 7h.6v2H11zM2 9h1v1h1v1h1v1H4v1H3v1H2v-1H1v-1H0v-1h1v-1h1zm0 2h1v1H2zm6-2h1v1h1v1h1v1h-1v1H9v1H8v-1H7v-1H6v-1h1v-1h1zm0 2h1v1H8zm-8 4h1v1H0zm11-1h.6v2H11zM0 18h1v-1h1v-1h1v-1h1v-1h1v-1h1v1h1v1h1v1h1v1h1v1h1v1h.6v4H11v1h-1v1H9v1H8v1H7v1H6v2.6H4V30H3v-1H2v-1H1v-1H0v-3h1v1h1v1h1v1h1v-1h1v-1h1v-1h1v-1h1v-1h1v-1H8v-1H7v-1H4v1h2v1H5v1H4v1H3v-1H2v-1H1v-1H0zm0 4h1v1H0zm11 3h.6v1H11zm-2 2h1v1h1v1h.6v1.6H11V30h-1v-1H9zm-2 3h1v.6H7z" transform="scale(5.30435 9)"/>
        </g>
        <use xlink:href="#blr_a" transform="matrix(-1 0 0 1 122 0)"/>
    </g>
    <use xlink:href="#blr_b" transform="matrix(1 0 0 -1 0 549)"/>
</svg>
